public/assets/img/vector4.svg

<svg width="70" height="52" viewBox="0 0 70 52" fill="none" xmlns="http://www.w3.org/2000/svg">
<path d="M65.8984 0H41.1523C40.3972 0 39.7852 0.600361 39.7852 1.34069C39.7852 2.08102 40.3972 2.68138 41.1523 2.68138H65.8984C66.6523 2.68138 67.2656 3.28281 67.2656 4.02207V8.15944H2.73438V4.02207C2.73438 3.28281 3.3477 2.68138 4.10156 2.68138H28.8477C29.6028 2.68138 30.2148 2.08102 30.2148 1.34069C30.2148 0.600361 29.6028 0 28.8477 0H4.10156C1.83996 0 0 1.8043 0 4.02207V41.3307C0 43.5484 1.83996 45.3527 4.10156 45.3527H36.5045C38.994 49.3365 43.4748 52 48.5785 52C53.6822 52 58.163 49.3365 60.6525 45.3527H65.8984C68.16 45.3527 70 43.5484 70 41.3307V4.02207C70 1.8043 68.16 0 65.8984 0ZM67.2656 10.8408V17.5443H2.73438V10.8408H67.2656ZM48.5785 49.3186C42.2837 49.3186 37.1625 44.2967 37.1625 38.1239C37.1625 31.9511 42.2837 26.9291 48.5785 26.9291C54.8733 26.9291 59.9945 31.9511 59.9945 38.1239C59.9945 44.2967 54.8733 49.3186 48.5785 49.3186ZM65.8984 42.6713H61.9475C62.4531 41.2459 62.7289 39.7161 62.7289 38.1239C62.7289 30.4725 56.381 24.2477 48.5785 24.2477C40.776 24.2477 34.4281 30.4725 34.4281 38.1239C34.4281 39.7159 34.7037 41.2459 35.2095 42.6713H4.10156C3.3477 42.6713 2.73438 42.0699 2.73438 41.3307V20.2256H67.2656V41.3307C67.2656 42.0699 66.6523 42.6713 65.8984 42.6713Z" fill="#90A1AE"/>
<path d="M35 2.68138C35.7551 2.68138 36.3672 2.08113 36.3672 1.34069C36.3672 0.600247 35.7551 0 35 0C34.2449 0 33.6328 0.600247 33.6328 1.34069C33.6328 2.08113 34.2449 2.68138 35 2.68138Z" fill="#90A1AE"/>
<path d="M8.20312 32.3411H18.8754C19.6305 32.3411 20.2426 31.7407 20.2426 31.0004C20.2426 30.2599 19.6305 29.6597 18.8754 29.6597H8.20312C7.44803 29.6597 6.83594 30.2599 6.83594 31.0004C6.83594 31.7407 7.44803 32.3411 8.20312 32.3411Z" fill="#90A1AE"/>
<path d="M28.5242 35.9675H8.20312C7.44803 35.9675 6.83594 36.5677 6.83594 37.3082C6.83594 38.0485 7.44803 38.6489 8.20312 38.6489H28.5242C29.2793 38.6489 29.8914 38.0485 29.8914 37.3082C29.8914 36.5679 29.2793 35.9675 28.5242 35.9675Z" fill="#90A1AE"/>
<path d="M48.5785 36.7832C47.6714 36.7832 46.9334 36.0595 46.9334 35.1699C46.9334 34.2804 47.6714 33.5567 48.5785 33.5567C49.007 33.5567 49.4121 33.7173 49.7194 34.0089C50.2618 34.5237 51.1273 34.5099 51.6526 33.978C52.1778 33.4459 52.1637 32.5971 51.621 32.0822C51.1392 31.6249 50.5671 31.2894 49.9457 31.0895V30.9512C49.9457 30.2108 49.3336 29.6105 48.5785 29.6105C47.8234 29.6105 47.2113 30.2108 47.2113 30.9512V31.0906C45.4642 31.6552 44.199 33.2699 44.199 35.1698C44.199 37.5378 46.1636 39.4644 48.5785 39.4644C49.4856 39.4644 50.2236 40.1881 50.2236 41.0777C50.2236 41.9672 49.4856 42.6909 48.5785 42.6909C48.15 42.6909 47.7448 42.5303 47.4376 42.2387C46.8951 41.7236 46.0294 41.7376 45.5042 42.2698C44.9791 42.8019 44.9933 43.6506 45.5358 44.1655C46.0176 44.6229 46.5899 44.9583 47.2112 45.1582V45.2966C47.2112 46.0369 47.8233 46.6372 48.5784 46.6372C49.3335 46.6372 49.9455 46.0369 49.9455 45.2966V45.157C51.6927 44.5924 52.9579 42.9777 52.9579 41.0778C52.958 38.7097 50.9934 36.7832 48.5785 36.7832Z" fill="#90A1AE"/>
</svg>

<svg width="70" height="52" fill="none" xmlns="http://www.w3.org/2000/svg"><path d="M65.898 0H41.152c-.755 0-1.367.6-1.367 1.34 0 .741.612 1.341 1.367 1.341h24.746c.754 0 1.368.602 1.368 1.341V8.16H2.734V4.022c0-.74.614-1.34 1.368-1.34h24.746c.755 0 1.367-.601 1.367-1.341S29.603 0 28.848 0H4.102C1.84 0 0 1.804 0 4.022v37.309c0 2.217 1.84 4.022 4.102 4.022h32.403C38.993 49.336 43.474 52 48.578 52c5.104 0 9.585-2.663 12.075-6.647h5.245c2.262 0 4.102-1.805 4.102-4.022V4.022C70 1.804 68.16 0 65.898 0Zm1.368 10.84v6.704H2.734v-6.703h64.532ZM48.578 49.32c-6.294 0-11.416-5.022-11.416-11.195s5.122-11.195 11.416-11.195c6.295 0 11.416 5.022 11.416 11.195s-5.12 11.195-11.416 11.195Zm17.32-6.648h-3.95c.505-1.425.78-2.955.78-4.547 0-7.652-6.347-13.876-14.15-13.876-7.802 0-14.15 6.224-14.15 13.876 0 1.592.276 3.122.782 4.547H4.101c-.754 0-1.368-.601-1.368-1.34V20.226h64.532V41.33c0 .739-.614 1.34-1.368 1.34Z" fill="#90A1AE"/><path d="M35 2.681c.755 0 1.367-.6 1.367-1.34C36.367.6 35.755 0 35 0s-1.367.6-1.367 1.34c0 .741.612 1.341 1.367 1.341ZM8.203 32.341h10.672c.756 0 1.368-.6 1.368-1.34 0-.741-.612-1.341-1.368-1.341H8.203c-.755 0-1.367.6-1.367 1.34 0 .74.612 1.341 1.367 1.341ZM28.524 35.968H8.204c-.756 0-1.368.6-1.368 1.34 0 .74.612 1.34 1.367 1.34h20.321c.755 0 1.367-.6 1.367-1.34 0-.74-.612-1.34-1.367-1.34ZM48.578 36.783c-.907 0-1.645-.724-1.645-1.613 0-.89.738-1.613 1.645-1.613.429 0 .834.16 1.141.452a1.387 1.387 0 0 0 1.934-.031 1.322 1.322 0 0 0-.032-1.896 4.375 4.375 0 0 0-1.675-.992v-.139c0-.74-.612-1.34-1.367-1.34-.756 0-1.368.6-1.368 1.34v.14c-1.747.564-3.012 2.179-3.012 4.079 0 2.368 1.965 4.294 4.38 4.294.907 0 1.645.724 1.645 1.614 0 .89-.738 1.613-1.645 1.613a1.65 1.65 0 0 1-1.141-.452 1.386 1.386 0 0 0-1.934.03c-.525.533-.51 1.382.032 1.897a4.375 4.375 0 0 0 1.675.992v.139c0 .74.612 1.34 1.367 1.34s1.367-.6 1.367-1.34v-.14c1.748-.565 3.013-2.18 3.013-4.08 0-2.367-1.965-4.294-4.38-4.294Z" fill="#90A1AE"/></svg>
